svg/fluentui-system-icons/ic_fluent_arrow_circle_up_32_filled.svg

<svg width="32" height="32" viewBox="0 0 32 32" fill="none" xmlns="http://www.w3.org/2000/svg">
<path d="M16 30C8.26801 30 2 23.732 2 16C2 8.26801 8.26801 2 16 2C23.732 2 30 8.26801 30 16C30 23.732 23.732 30 16 30ZM9.29289 16.7071C9.68342 17.0976 10.3166 17.0976 10.7071 16.7071L15 12.4142L15 22C15 22.5523 15.4477 23 16 23C16.5523 23 17 22.5523 17 22L17 12.4142L21.2929 16.7071C21.6834 17.0976 22.3166 17.0976 22.7071 16.7071C23.0976 16.3166 23.0976 15.6834 22.7071 15.2929L16.7071 9.29289C16.3166 8.90237 15.6834 8.90237 15.2929 9.29289L9.29289 15.2929C8.90237 15.6834 8.90237 16.3166 9.29289 16.7071Z" fill="#212121"/>
</svg>

<svg xmlns="http://www.w3.org/2000/svg" width="32" height="32"><path d="M16 30C8.268 30 2 23.732 2 16S8.268 2 16 2s14 6.268 14 14-6.268 14-14 14ZM9.293 16.707a1 1 0 0 0 1.414 0L15 12.414V22a1 1 0 1 0 2 0v-9.586l4.293 4.293a1 1 0 0 0 1.414-1.414l-6-6a1 1 0 0 0-1.414 0l-6 6a1 1 0 0 0 0 1.414Z"/></svg>
